X:4537
L:1/8
M:2/4
K:G
"G" dB/c/ de | dg b2 |"D7" df !>!a2 |"G" Bd !>!g2 | dB/c/ de | dg b2 |"D7" df a>f |"G" g3 z :: 
"D7" af/g/ aa |"G" bg/a/ bb |"D7" gf f>e |"G" ed B2 |"D7" af/g/ aa |"G" bg/a/ bg |"D7" fd b>a | 
"G" g3 z :|[K:C]"C" eg g/g/g |"F" !>!a2"C/E" !>!g2 |"Am" ce e/e/e |"Dm" !>!f2"Am" !>!e2 | 
"D7" dd/d/ dd |"G7" df B>d |"C" ce"^F#0" a>^f |"G7" g3 g/f/ |"C" eg g/g/g |"F" !>!a2"C/E" !>!g2 | 
"Am" ce e/e/e |"F" !>!f2"C" !>!e2 |"G/D" dB/c/ dg/b/ |"C" c'g/a/"G" ba/g/ |"D7" ^fd ef | 
"G" g3 c' |:"G7" c'>b bf |"C" a>g ge |"G7" e/f/f ed |"C" ce gc' |"G7" c'>b bf |"C" a>g ge | 
"G7" e/f/f ed |1"C" c3 c' :|2"C" c3 z |]

